X:1
T:Rouen (Gounod), 87.87.87
T:Rouen (Gounod), 87.87.87
T:Charles François Gounod, 1872
T:Public Domain Courtesy of the Cyber Hymnal™
C:Charles François Gounod, 1872
Z:Public Domain
Z:Courtesy of the Cyber Hymnal™
%%score ( 1 2 ) ( 3 4 )
L:1/8
Q:1/4=110
M:4/4
K:Eb
V:1 treble 
V:2 treble 
V:3 bass 
V:4 bass 
V:1
 G2 [FG]2 [EG]2 (AF) | [B,E]2 [B,D]2 [DF]2 E2 | [EB]2 [FA]2 [GB]2 (cA) | [EG]2 [DF]2 [EG]3 z | %4
 [FB]2 [FB]2 (dc) [GB]2 | [GB]2 [GB]2 (dc) [FB]2 | [Be]2 [Dd]2 (cd) (Bc) | [FB]2 [F=A]2 [FB]3 z | %8
 G2 (AB) [Ec]2 [Ec]2 | A2 (Bc) [Fd]2 [Fd]2 | [Be]2 [GB]2 ([Bd][Ac]) ([GB][FA]) | [EG]2 [DF]2 E4 |] %12
V:2
 G2 x2 C2 x2 | x6 E2 | x6 E2 | x8 | x4 G2 x2 | x4 F2 x2 | x4 G2 E2 | x8 | G2 F2 x4 | A2 G2 x4 | %10
 x8 | x4 E4 |] %12
V:3
 [E,G,]2 [D,=B,]2 [C,C]2 [F,A,]2 | [B,,G,]2 [B,,F,]2 [B,,A,]2 [E,G,]2 | %2
 [G,B,]2 [F,D]2 [E,E]2 [C,A,]2 | [B,,B,]2 [B,,B,]2 [E,B,]3 z | [D,B,]2 [D,B,]2 (B,C) [E,D]2 | %5
 [=E,D]2 [E,D]2 (B,C) [F,D]2 | [G,E]2 [F,B,]2 [E,B,]2 [G,E]2 | [F,D]2 [F,C]2 [B,,D]3 z | %8
 [E,E]2 D2 [A,C]2 [A,C]2 | [F,F]2 E2 [B,D]2 [B,D]2 | [G,B,]2 [E,E]2 [A,E]2 [A,,C]2 | %11
 [B,,B,]2 [B,,A,]2 [E,G,]4 |] %12
V:4
 x8 | x8 | x8 | x8 | x4 E,2 x2 | x4 F,2 x2 | x8 | x8 | x2 (F,G,) x4 | x2 (G,A,) x4 | x8 | x8 |] %12

